source/img/icon-3.svg

<svg width="50" height="40" viewBox="0 0 50 40" fill="none" xmlns="http://www.w3.org/2000/svg">
<path d="M43.0665 2H3.93347C1.71459 2 0 3.68132 0 5.85714V25.1429C0 27.3187 1.71459 29 3.93347 29H43.0665C45.2854 29 47 27.3187 47 25.1429V5.85714C47 3.78022 45.1845 2 43.0665 2ZM3.02575 26.7253V4.76923H43.5708V26.7253H3.02575Z" fill="#63D1BB"/>
<path d="M6.95925 22.8683H39.6374V8.62659H6.95925V22.8683ZM23.5 10.5057C26.4249 10.5057 28.8455 12.8793 28.8455 15.7475C28.8455 18.6156 26.4249 20.9892 23.5 20.9892C20.5751 20.9892 18.1545 18.6156 18.1545 15.7475C18.1545 12.7804 20.5751 10.5057 23.5 10.5057Z" fill="#63D1BB"/>
</svg>

<svg width="50" height="40" fill="none" xmlns="http://www.w3.org/2000/svg"><path d="M43.07 2H3.93A3.84 3.84 0 000 5.86v19.28A3.84 3.84 0 003.93 29h39.14A3.84 3.84 0 0047 25.14V5.86A3.97 3.97 0 0043.07 2zM3.03 26.73V4.77h40.54v21.96H3.03z" fill="#63D1BB"/><path d="M6.96 22.87h32.68V8.63H6.96v14.24zM23.5 10.5a5.33 5.33 0 015.35 5.24 5.33 5.33 0 01-5.35 5.24 5.33 5.33 0 01-5.35-5.24 5.27 5.27 0 015.35-5.24z" fill="#63D1BB"/></svg>
